X:1
T:Feelings
C:1974 - Morris Albert / Louis Gaste
Z:1974
L:1/8
M:4/4
I:linebreak $
K:G
V:1 treble nm=" " snm=" "
V:1
"Em" BE- E6 |"Emaj" z4 z2 E/F/G/E/ |"Em7" BE- E6 |"A7" z4 z2 E/F/G/E/ |$"Am7" B4 E4 | %5
"D7" z4 z2 (3FGA |"G6" B8 |1"F#m7" z8"B7" :|2"Dm7" z8"G7" ||$"C" e3 G-"Cmaj7/B" G4- | %10
"Am7" G2 z e"D7" dcBc |"Bm" d4 d2 z2 |"E7" z2 z d cBAB |$"Am" c3- c/B/ c4 |"D7" z2 z c BAGA | %15
"Gmaj7" B8 | z8 |] %17

